pp/eye.svg

<svg viewBox="0 0 20 20" fill="none" xmlns="http://www.w3.org/2000/svg" height="1em" width="1em">
  <path fill-rule="evenodd" clip-rule="evenodd" d="M10 16.5C14.8972 16.5 19 14.1922 19 11C19 7.80784 14.8972 5.5 10 5.5C5.10282 5.5 1 7.80784 1 11C1 14.1922 5.10282 16.5 10 16.5ZM10 7.5C13.9394 7.5 17 9.2216 17 11C17 12.7784 13.9394 14.5 10 14.5C6.06062 14.5 3 12.7784 3 11C3 9.2216 6.06062 7.5 10 7.5Z" fill="currentColor"/>
  <path d="M9 3.5C9 2.94772 9.44772 2.5 10 2.5C10.5523 2.5 11 2.94772 11 3.5L11 6.5C11 7.05228 10.5523 7.5 10 7.5C9.44772 7.5 9 7.05228 9 6.5L9 3.5Z" fill="currentColor"/>
  <path d="M13.0194 3.80383C13.1277 3.26227 13.6546 2.91106 14.1961 3.01937C14.7377 3.12768 15.0889 3.65451 14.9806 4.19606L14.4806 6.69606C14.3723 7.23762 13.8455 7.58884 13.3039 7.48053C12.7623 7.37222 12.4111 6.84539 12.5194 6.30383L13.0194 3.80383Z" fill="currentColor"/>
  <path d="M6.98057 3.80383C6.87226 3.26227 6.34543 2.91106 5.80387 3.01937C5.26231 3.12768 4.9111 3.65451 5.01941 4.19606L5.51941 6.69606C5.62772 7.23762 6.15455 7.58884 6.69611 7.48053C7.23767 7.37222 7.58888 6.84539 7.48057 6.30383L6.98057 3.80383Z" fill="currentColor"/>
  <path d="M2.85749 4.98553C2.57335 4.51195 1.95909 4.35839 1.48551 4.64254C1.01193 4.92668 0.85836 5.54094 1.14251 6.01452L2.64251 8.51452C2.92666 8.98811 3.54092 9.14167 4.0145 8.85752C4.48808 8.57337 4.64164 7.95911 4.35749 7.48553L2.85749 4.98553Z" fill="currentColor"/>
  <path d="M17.1425 4.98553C17.4267 4.51195 18.0409 4.35839 18.5145 4.64254C18.9881 4.92668 19.1416 5.54094 18.8575 6.01452L17.3575 8.51452C17.0733 8.98811 16.4591 9.14167 15.9855 8.85752C15.5119 8.57337 15.3584 7.95911 15.6425 7.48553L17.1425 4.98553Z" fill="currentColor"/>
  <path fill-rule="evenodd" clip-rule="evenodd" d="M10 14C11.933 14 13.5 12.433 13.5 10.5C13.5 8.567 11.933 7 10 7C8.067 7 6.5 8.567 6.5 10.5C6.5 12.433 8.067 14 10 14ZM10 9C10.8284 9 11.5 9.67157 11.5 10.5C11.5 11.3284 10.8284 12 10 12C9.17157 12 8.5 11.3284 8.5 10.5C8.5 9.67157 9.17157 9 10 9Z" fill="currentColor"/>
</svg>

<svg viewBox="0 0 20 20" fill="none" xmlns="http://www.w3.org/2000/svg" height="1em" width="1em">
  <path fill-rule="evenodd" clip-rule="evenodd" d="M10 16.5c4.897 0 9-2.308 9-5.5s-4.103-5.5-9-5.5S1 7.808 1 11s4.103 5.5 9 5.5Zm0-9c3.94 0 7 1.722 7 3.5s-3.06 3.5-7 3.5-7-1.722-7-3.5 3.06-3.5 7-3.5Z" fill="currentColor"/>
  <path d="M9 3.5a1 1 0 0 1 2 0v3a1 1 0 1 1-2 0v-3Zm4.02.304a1 1 0 0 1 1.96.392l-.5 2.5a1 1 0 1 1-1.96-.392l.5-2.5Zm-6.04 0a1 1 0 0 0-1.96.392l.5 2.5a1 1 0 0 0 1.96-.392l-.5-2.5ZM2.857 4.986a1 1 0 1 0-1.714 1.029l1.5 2.5a1 1 0 1 0 1.714-1.03l-1.5-2.5Zm14.285 0a1 1 0 0 1 1.716 1.029l-1.5 2.5a1 1 0 0 1-1.716-1.03l1.5-2.5Z" fill="currentColor"/>
  <path fill-rule="evenodd" clip-rule="evenodd" d="M10 14a3.5 3.5 0 1 0 0-7 3.5 3.5 0 0 0 0 7Zm0-5a1.5 1.5 0 1 1 0 3 1.5 1.5 0 0 1 0-3Z" fill="currentColor"/>
</svg>
